X:292
T:Hunt the Squirrel
M:6/8
L:1/8
K:G
G2d d2e | d3B3 | GAB A2G | GAB A2G | 
G2d d2e | d3B3 | GAB A2G | G3-G3 :| 
c2d ede | c2d ede | c2d e2f | g3-g fe | 
d2B d2B | d2B d3 | GAB A2G | G3-G3 :| 

